assets/awsmediaservices/original.svg

<svg height="74" viewBox="0 0 74 74" width="74" xmlns="http://www.w3.org/2000/svg"><g fill="none" fill-rule="evenodd"><path d="m5 5h64v64h-64z" fill="#ed7100"/><path d="m1 1h72v72h-72z" stroke="#879196" stroke-width="2"/><path d="m22.474 18.062-11.309 6.802c-.016.01-.053.036-.109.005s-.056-.072-.056-.093v-13.553c0-.021 0-.063.056-.093a.1.1 0 0 1 .048-.014c.033 0 .062.02.099.044l11.271 6.777.516-.857zm1.031-1.839-11.232-6.753a2.1 2.1 0 0 0 -2.161-.103 2.1 2.1 0 0 0 -1.112 1.856v13.553c0 .778.426 1.489 1.112 1.856.316.17.663.253 1.005.253.398 0 .79-.113 1.118-.332l11.309-6.802a2.1 2.1 0 0 0 .938-1.751c0-.706-.351-1.361-.977-1.777m18.495 10.671a.106.106 0 0 1 -.105.106h-2.921v-18.001h2.921c.058 0 .105.048.105.106zm-12-5.894v11.789c0 .668-.543 1.211-1.211 1.211h-25.578a1.21 1.21 0 0 1 -1.211-1.211v-29.579c0-.668.543-1.21 1.211-1.21h25.578c.668 0 1.211.542 1.211 1.21v11.789h3.762l3.238-4.447v14.895l-3.238-4.447zm11.895-14.001h-4.823l-4.333 6.001h-.739v-9.79c0-1.77-1.44-3.21-3.211-3.21h-25.578a3.214 3.214 0 0 0 -3.211 3.21v29.579c0 1.77 1.441 3.21 3.211 3.21h25.578a3.214 3.214 0 0 0 3.211-3.21v-9.79h.739l4.333 6.001h4.823a2.11 2.11 0 0 0 2.105-2.106v-17.789a2.11 2.11 0 0 0 -2.105-2.106" fill="#fff" transform="translate(15 19)"/></g></svg>

<svg xmlns="http://www.w3.org/2000/svg" width="74" height="74" viewBox="0 0 74 74"><title>Icon-Architecture-Category/48/Media-Services_48</title><g id="Icon-Architecture-Category/48/Media-Services_48" fill="none" fill-rule="evenodd" stroke="none" stroke-width="1"><path id="Rectangle" fill="#ed7100" d="M5 5h64v64H5z"/><path id="#879196-Border-Copy-16" stroke="#879196" stroke-width="2" d="M1 1h72v72H1z"/><g id="Icon-Category/48/Media-Services_48" fill="#fff" transform="translate(15 19)"><path id="Media-Services_Category-Icon_48_Squid" d="m22.474 18.062-11.309 6.802c-.016.01-.053.036-.109.005S11 24.797 11 24.776V11.223c0-.021 0-.063.056-.093a.1.1 0 0 1 .048-.014c.033 0 .062.02.099.044l11.271 6.777.516-.857zm1.031-1.839L12.273 9.47a2.1 2.1 0 0 0-2.161-.103A2.1 2.1 0 0 0 9 11.223v13.553c0 .778.426 1.489 1.112 1.856.316.17.663.253 1.005.253.398 0 .79-.113 1.118-.332l11.309-6.802A2.1 2.1 0 0 0 24.482 18c0-.706-.351-1.361-.977-1.777M42 26.894a.106.106 0 0 1-.105.106h-2.921V8.999h2.921c.058 0 .105.048.105.106zM30 21v11.789c0 .668-.543 1.211-1.211 1.211H3.211A1.21 1.21 0 0 1 2 32.789V3.21C2 2.542 2.543 2 3.211 2h25.578C29.457 2 30 2.542 30 3.21v11.789h3.762L37 10.552v14.895L33.762 21zM41.895 6.999h-4.823L32.739 13H32V3.21C32 1.44 30.56 0 28.789 0H3.211A3.214 3.214 0 0 0 0 3.21v29.579c0 1.77 1.441 3.21 3.211 3.21h25.578A3.214 3.214 0 0 0 32 32.789v-9.79h.739L37.072 29h4.823A2.11 2.11 0 0 0 44 26.894V9.105a2.11 2.11 0 0 0-2.105-2.106"/></g></g></svg>
